X:1
T:Danse Bacchanale
T:Danse Bacchanale
T:From Samson et Dalila
T:Saint-Saëns
T:VC
C:Camille Saint Saens
L:1/8
Q:1/4=20
M:4/4
K:F
V:1 bass nm="Violoncello" snm="Vc."
V:1
!f!"^pizz." A, z z2 !fermata!z4 | !fermata!z8 ||[M:2/4][Q:1/4=120][Q:1/4=118] z4 | z4 | %4
w: ||||
!p!"^arco" .A, z .A, z | .A, z .A, z | .D, z .D, z | .D, z .B, z | .F, z .F, z | .F, z .A, z | %10
w: ||||||
 .D, z .D, z | .D, z .B, z | .F, z .F, z | .F, z .G, z | .F, z .D, z | .A, z .G, z | .F, z .D, z | %17
w: |||||||
 .A, z .G, z | .A, z .G, z | .A, z .G, z | .A, z z2 | z2"^pizz." A, z | D z D z | D z B, z | %24
w: |||||||
 F, z F, z | F, z"_poco a poco cresc." A, z | D z D z | D z B, z | F, z F, z | F, z G, z | %30
w: ||||||
 A, z G, z | F, z G, z | A, z G, z | F, z _A, z | G, z B, z | A, z C z | B, z!f! A,A, | %37
w: |||||||
"^A" D, z z2 | z4 |"^arco"!p! .D,.D, .D,.D, | z .D,/.D,/ .D,.D,/.D,/ | .D,.D, .D,.D, | %42
w: |||||
 z .D,/.D,/ .D,.D,/.D,/ | .D,.D, .D,.D, | z .D,/.D,/ .D,.D,/.D,/ | .D,.D,/.D,/ .D,.D,/.D,/ | %46
w: ||||
 .D,.D, .D,.D, |"_cresc." .D,.D, .D,.D, | z .D,/.D,/ .D,.D,/.D,/ | !/!D,4 | %50
w: ||||
 z .D,/.D,/ .D,.D,/.D,/ | !/!.D,4 | z .D,/.D,/ .D,.D,/.D,/ | .D,.D,/.D,/ .D,.D,/.D,/ | z4 | %55
w: |||||
 z2!f! .D.C | (!>!B,/C/A,/B,/) .G,.A, | (!>!F,/G,/E,/F,/) .D,.E, | .C,.D, .B,,.D, | %59
w: ||||
 (!>!F,/E,/D,) .C.B, | (!>!_A,/B,/G,/A,/) .F,.G, | (!>!_E,/F,/D,/E,/) .C,.B,, | ._A,,.C, ._E,.D, | %63
w: ||||
 (!>!C,/B,,/A,,) .D.C | (!>!B,/C/A,/B,/) .G,.A, | (!>!F,/G,/E,/F,/) .D,.E, | .C,.D, .B,,.D, | %67
w: ||||
 (!>!F,/E,/D,) .C.B, | (!>!_A,/B,/G,/A,/) .F,.G, | (!>!_E,/F,/D,/E,/) .C,.B,, | ._A,,.C, ._E,.D, | %71
w: ||||
 (!>!C,/B,,/A,,)!f! .D.C | (!>!B,/C/A,/B,/) .G,.A, | .F,.D, .D.C | (!>!B,/C/A,/B,/) .G,.A, | %75
w: ||||
 .F,.D, .D,.C, | (!>!B,,/C,/A,,/B,,/) .G,,.A,, | (!>!B,,/C,/A,,/B,,/) .G,,.A,, | %78
w: |||
 (!>!B,,/C,/A,,/B,,/) .G,,.A,, | B,, B,,2 B,,- | B,, B,,2 B,,- | B,, B,,2 B,, | A,,3 A,, | %83
w: |||||
 B,, B,,2 B,,- | B,, B,,2 B,,- | B,, B,,2 B,, | A,,3 A,, | A,,3 A,, | A,,3 A,, | !/!A,,4 | %90
w: |||||||
!ff! .D, .D,/.D,/ .D,.E, | .F,/.F,/.F, .G,.A, | z .D,/.D,/ .D,.E, | .F,/.F,/.F, .G,.A, | %94
w: ||||
 z .D,/.D,/ .D,.E, | .F,/.F,/.F, .G,.C | z .F,/.F,/ .F,.G, | .A,/.A,/.A, .=B,.E | %98
w: ||||
 z .A,/.A,/ .A,.G, | .F,/.F,/.F, .E,.D, | z .A,/.A,/ .A,.G, | z .F,/.F,/ .F,.E, | %102
w: ||||
 z!>(! .A,,/.A,,/ .A,,.B,, | .^C,/.C,/.C, .E,.F, | z .A,,/.A,,/ .A,,.B,, | %105
w: |||
 .^C,/.C,/.C, .E,.F,!>)! |!p!"^B" A,, z z2 | z4 | z4 | z4 |!pp!!pp! [A,,E,]4- | [A,,E,]4- | %112
w: |||||1|2|
 [A,,E,]4- | [A,,E,]4- | [A,,E,]4- | [A,,E,]4- | [A,,E,]4- | [A,,E,]4- | [A,,E,]4- | [A,,E,]4- | %120
w: 3|4|5|6|7|8|9|10|
 [A,,E,]4- | [A,,E,]4- | [A,,E,]4- | [A,,E,]4- | [A,,E,]4- | [A,,E,]4- | [A,,E,]4- | [A,,E,]4- | %128
w: 11|12|13|14|15|16|17|18|
 [A,,E,]4- | [A,,E,]4- | [A,,E,]4- | [A,,E,]4- | [A,,E,]4- | [A,,E,]4- | [A,,E,]4- | [A,,E,]4- | %136
w: 19|20|21|22|23|24|25|26|
 [A,,E,]4- | [A,,E,]4- | [A,,E,]4- | [A,,E,]4- | [A,,E,]4- | [A,,E,]4- | [A,,E,]4- | [A,,E,]4- | %144
w: 27|28|29|30|31|32|33|34|
 [A,,E,]4- | [A,,E,]4- | [A,,E,]4- | [A,,E,]4- |"^C" [A,,E,] z!p!"^pizz." G, z | F, z G, z | %150
w: 35|36|37|38|||
 F, z G, z | F, z F,_E, | D, z _A, z | G, z _A, z | G, z _A, z | G, z G,F, | %156
w: ||||||
 E, z"^arco \ncol legno\n" C,E, | F,_A, =B,_D | CG, C_B, | _A,G, F,_E, | D, z D,^F, | G,B, ^C_E | %162
w: ||||||
 DA, D=C | B,A, G,F, | E, z z2 | z4 | z2"^arco naturale" .^G,/.A,/.=B,/.C/ | .A,/.=B,/.C/.D/ .EE- | %168
w: ||||||
 EF z2 | z4 | z2 .A,/.B,/.C/.D/ | .B,/.C/.D/._E/ .FF- | FG z2 | z4 | z2"^pizz." G,F, | %175
w: |||||||
 _E,D, C,B,, | A,, z z2 | z4 | z2 A,G, | ^F,F, E,_E, |"^D""_cresc." D,2 ^C,2 | D,2 G,2 | ^F,2 G,2 | %183
w: ||||||||
 ^F,2 _E,2 | D,2 G,2 | ^F,2"^arco." .D,2 |!f! .G,,2 .C,2 | .=B,,2 .C,2 | .=B,,2 ._A,,2 | %189
w: ||||||
 .G,,2 .C,2 | .=B,,2 .C,2 | .=B,,2 ._A,,2 | G,, D,/D,/ D,G,, | D,/D,/D, G,,D, | G,,D,/D,/ D,G,, | %195
w: ||||||
 D,/D,/D, G,,D, | G,,D,/D,/ D,G,, |"_dim." D,/D,/D, G,,D, | G,,D,/D,/ D,G,, | D,/D,/D, G,,D, | %200
w: |||||
 G,,D,/D,/ D,G,, | D,/D,/D, G,,D, | G,,D,/D,/ D,G,, | D,/D,/D, G,,D, |!p! G,,D,/D,/ D,G,, | %205
w: |||||
 D,/D,/D, G,,D, | G,,D,/D,/ D,G,, | D,/D,/D, G,,D, | G,,D,/D,/ D,G,, | D,/D,/D, G,,D, | G,4- | %211
w: ||||||
 G,4 | z D,/D,/ D,G,, | D,/D,/D, G,,D, | G,4- | G,4 | z4 |"^pizz." G,,2 z2 | z4 | G,,2 z2 | z4 | %221
w: ||||||||||
 z4 | z4 | z4 ||[K:C][M:4/4][Q:1/8=120]"_pizz.""^Doppio più lento" C,2 z2 z4 | C,2 z2 z4 | %226
w: |||||
 D,2 z2 z4 | G,,2 z2 z4 | [C,G,E]2 z2 z4 | [C,G,E]2 z2 z4 | [D,B,F]2 z2 z4 | %231
w: |||||
 [G,,D,B,]2 z2 z2[K:tenor]"^arco."!<(! EG!<)! |!mf!{/B} (A!>(! G2) (F- FE^DE)!>)! | %233
w: ||
!p!{/A} (G F2) (E-!<(! E^C=DF)!<)! |!mf!{/B} (A!>(! G2) (F- FE^DE)!>)! | %235
w: ||
!p!{/A} (G F2) (E-!<(! E^C=DF)!<)! |!>(! (A G2) (F-!>)!!<(! F^DEG)!<)! | %237
w: ||
"^E"!>(! (_B A2) (_A-!>)!!<(! AG^FG)!<)! |!>(! (_B =A2) (_A-!>)!!<(! AG^FG)!<)! |!f! (c4 _B2 _A2) | %240
w: |||
!>(! (G4 F2 E2)!>)! |!p! (E2 D2-) (D^C) (CE/D/) | (=C2 E2- E) (^C2 E/D/) | %243
w: |||
!<(! =C2 E2- E(^C- (3CED!<)! ||[M:2/4][Q:1/4=120] =C2) z2 | z4 | z4 | z4 | z2[K:bass]!p! (_B,,2 | %249
w: ||||||
 _A,,2 F,,2) | (C,B,,/_A,,/ G,,A,,/B,,/) | (C,B,,/_A,,/ G,,A,,/=A,,/ | _B,,) z z2 | z4 | z4 | z4 | %256
w: |||||||
 z2 (_A,2 | _G,2 _E,2) | (_B,,A,,/_G,,/) (F,,G,,/A,,/) | (_B,,A,,/_G,,/) (F,,=G,,/^G,,/) || %260
w: ||||
[K:F]"^F" .A,,.A,, .A,,.A,, | z .A,,/.A,,/ .A,,.A,,/.A,,/ | .A,,.A,, .A,,.A,, | %263
w: |||
 z .A,,/.A,,/ .A,,.A,,/.A,,/ | .A,,.A,, .A,,.A,, | z .A,,/.A,,/ .A,,.A,,/.A,,/ | %266
w: |||
 .A,,.A,,/.A,,/ .A,,.A,,/.A,,/ | .A,,.A,, .A,,.A,, | .A,,.A,, .A,,.A,, | %269
w: |||
 z"_cresc." .A,,/.A,,/ .A,,.A,,/.A,,/ | !/!.A,,4 | z .A,,/.A,,/ .A,,.A,,/.A,,/ | !/!.A,,4 | %273
w: ||||
 z .A,,/.A,,/ .A,,.A,,/.A,,/ | .A,,.A,,/.A,,/ .A,,.A,,/.A,,/ | !/!.A,,4 | A,, z!f! .D.C | %277
w: ||||
 (!>!B,/C/A,/B,/) .G,.A, | (!>!F,/G,/E,/F,/) .D,.E, | .C,.D, .B,,.D, | (!>!F,/E,/D,) .C.B, | %281
w: ||||
 (!>!_A,/B,/G,/A,/) .F,.G, | (!>!_E,/F,/D,/E,/) .C,.B,, | ._A,,.C, ._E,.D, | (!>!C,/B,,/A,,) .D.C | %285
w: ||||
 (!>!B,/C/A,/B,/) .G,.A, | (!>!F,/G,/E,/F,/) .D,.E, | .C,.D, .B,,.D, | (!>!F,/E,/D,) .C.B, | %289
w: ||||
 (!>!_A,/B,/G,/A,/) .F,.G, | (!>!_E,/F,/D,/E,/) .C,.D, | ._A,,.C, ._E,.D, | %292
w: |||
 (!>!C,/B,,/A,,)!ff! =A, z | D z D z | D z B, z | F, z F, z | F, z A, z | D z D z | D z B, z | %299
w: |||||||
 F, z F, z | F, z G, z | F, z D, z | A, z G, z | A, z G, z | F, z G, z | F, z _A, z | G, z B, z | %307
w: ||||||||
 A, z B,B, | A,2 .A,.C | (!>!B,/C/A,/B,/) .G,.A, | .F,.D, .A,.C | (!>!B,/C/A,/B,/) .G,.A, | %312
w: |||||
 .F,.D, .D,.C, | (!>!B,,/C,/A,,/B,,/) .G,,.A,, | (!>!B,,/C,/A,,/B,,/) .G,,.A,, | %315
w: |||
 (!>!B,,/C,/A,,/B,,/) .G,,.A,, | B,, B,,2 B,,- | B,, B,,2 B,,- | B,, B,,2 B,, | !>!A,,3 A,, | %320
w: |||||
 B,, B,,2 B,,- | B,, B,,2 B,,- | B,, B,,2 B,, | !>!A,3 A, | !>!A,3 A, | !>!A,3 A, | !/!A,4 | %327
w: |||||||
"^G" D,"^di più in più animato"A,/A,/ A,D, | A,/A,/A, D,A, | D,A,/A,/ A,D, | %330
w: |||
[Q:1/4=130] A,/A,/A, D,A, | D,A,/A,/ A,D, | A,/A,/A, D,A, | D,A,/A,/ A,D, | A,/A,/A, D,A, | %335
w: |||||
 D,A,/A,/ A,D, | A,/A,/A, D,A, | D,A,/A,/ A,D, | A,/A,/A, D,A, | D,A,/A,/ A,D, | A,/A,/A, D,A, | %341
w: ||||||
 D,A,/A,/ A,D, | A,/A,/A, D,A, | D,A,/A,/ A,D, | A,/A,/A, D,A, | D,A,/A,/ A,D, | A,/A,/A, D,A, | %347
w: ||||||
"_più" D,!f!A,/A,/ A,D, |[Q:1/4=140] A,/A,/A, D,A, | D,A,/A,/ A,D, | A,/A,/A, D,A, | %351
w: ||||
 D,A,/A,/ A,D, | A,/A,/A, D,A, | D,A,/A,/ A,D, | A,/A,/A, D,A, | D,A,/A,/[Q:1/4=150] A,D, | %356
w: |||||
 A,/A,/A, D,A, | D,A,/A,/ A,D, |[Q:1/4=155] A,/A,/A, D,A, | D,A,/A,/ A,D, | A,/A,/A, D,A, | %361
w: |||||
 D,A,/A,/ A,D, | A,/A,/A, D,A, |[Q:1/4=160] D,_E, ^F,G, | A,G, ^F,_E, | D,C, B,,A,, | %366
w: |||||
 G,,A,, B,,^C, | D,_E,^F,G, | A,G,^F,_E, | D,C,B,,A,, | G,,A,,B,,^C, | D,2 G,2 | D,2 G,,2 | %373
w: |||||||
 D,2 G,2 | D,2 G,2 | D,G,D,G, | D,G,D,G, | D,G,D,G, | D,G,D,G, | D,_E, ^F,A, | D_E ^FA | ^F_EDA, | %382
w: |||||||||
 ^F,_E,D,A,, | D,2 z2 |] %384
w: ||

